packages/kaspersky-hexa-ui-icons/src/iconsSVGs/24/MapActiv.svg

<svg width="24" height="24" viewBox="0 0 24 24" fill="none" xmlns="http://www.w3.org/2000/svg">
<path d="M4.5 9.8999C4.5 5.48162 8.08172 1.8999 12.5 1.8999C16.9183 1.8999 20.5 5.48162 20.5 9.8999C20.5 12.4628 19.1839 14.9716 17.7653 16.9558C16.3277 18.9665 14.6771 20.5861 13.7958 21.3948C13.059 22.0709 11.941 22.0709 11.2042 21.3948C10.3229 20.5861 8.67227 18.9665 7.23471 16.9558C5.81612 14.9716 4.5 12.4628 4.5 9.8999ZM12.5 11.8999C13.6046 11.8999 14.5 11.0045 14.5 9.8999C14.5 8.79533 13.6046 7.8999 12.5 7.8999C11.3954 7.8999 10.5 8.79533 10.5 9.8999C10.5 11.0045 11.3954 11.8999 12.5 11.8999Z" fill="black"/>
</svg>

<svg xmlns="http://www.w3.org/2000/svg" width="24" height="24" fill="none" viewBox="0 0 24 24"><path fill="#000" d="M4.5 9.8999c0-4.4183 3.5817-8 8-8s8 3.5817 8 8c0 2.5629-1.3161 5.0717-2.7347 7.0559-1.4376 2.0107-3.0882 3.6303-3.9695 4.439a1.909 1.909 0 0 1-2.5916 0c-.8813-.8087-2.532-2.4283-3.9695-4.439C5.8161 14.9716 4.5 12.4628 4.5 9.8999m8 2c1.1046 0 2-.8954 2-2s-.8954-2-2-2-2 .8954-2 2 .8954 2 2 2"/></svg>
